src/Pure/16/symbolic/mimetypes/application-x-executable-symbolic.svg

<?xml version="1.0" encoding="UTF-8" standalone="no"?>
<svg
   height="16"
   width="16"
   version="1.1"
   id="svg1"
   sodipodi:docname="application-x-executable-symbolic.svg"
   inkscape:version="1.4.2 (ebf0e940d0, 2025-05-08)"
   xmlns:inkscape="http://www.inkscape.org/namespaces/inkscape"
   xmlns:sodipodi="http://sodipodi.sourceforge.net/DTD/sodipodi-0.dtd"
   xmlns="http://www.w3.org/2000/svg"
   xmlns:svg="http://www.w3.org/2000/svg">
  <defs
     id="defs1">
    <style
       id="current-color-scheme"
       type="text/css">
        .ColorScheme-Text { color:#363636; }
        .ColorScheme-NeutralText { color:#f67400; }
        .ColorScheme-PositiveText { color:#37c837; }
        .ColorScheme-NegativeText { color:#f44336; }
        .ColorScheme-Highlight { color:#3daee9; }
     </style>
  </defs>
  <sodipodi:namedview
     id="namedview1"
     pagecolor="#ffffff"
     bordercolor="#000000"
     borderopacity="0.25"
     inkscape:showpageshadow="2"
     inkscape:pageopacity="0.0"
     inkscape:pagecheckerboard="0"
     inkscape:deskcolor="#d1d1d1"
     inkscape:zoom="49.75"
     inkscape:cx="7.9899497"
     inkscape:cy="8"
     inkscape:window-width="1920"
     inkscape:window-height="1011"
     inkscape:window-x="0"
     inkscape:window-y="0"
     inkscape:window-maximized="1"
     inkscape:current-layer="svg1" />
  <path
     id="path1"
     style="fill:currentColor"
     class="ColorScheme-Text"
     d="M 2.5 1 C 1.678 1 1 1.678 1 2.5 L 1 13.5 C 1 14.322 1.678 15 2.5 15 L 13.5 15 C 14.323 15 15 14.322 15 13.5 L 15 2.5 C 15 1.678 14.323 1 13.5 1 L 2.5 1 z M 2.5 2 L 13.5 2 C 13.786 2 14 2.214 14 2.5 L 14 13.5 C 14 13.786 13.786 14 13.5 14 L 2.5 14 A 0.488 0.488 0 0 1 2 13.5 L 2 2.5 C 2 2.214 2.215 2 2.5 2 z M 7.2011719 4.0019531 L 7.2011719 5.1894531 L 7.0253906 5.2519531 A 3.33 3.33 0 0 0 6.75 5.375 L 6.5820312 5.4570312 L 5.7480469 4.625 L 5.7480469 4.6230469 L 5.7460938 4.6230469 L 5.7441406 4.6230469 L 5.7421875 4.6210938 C 5.7408125 4.6206562 5.7375469 4.6195625 5.7363281 4.6191406 L 5.734375 4.6210938 C 5.732125 4.6220938 5.7268594 4.6220469 5.7246094 4.6230469 L 5.7246094 4.625 L 4.6269531 5.7226562 L 4.6289062 5.7226562 L 4.6289062 5.7246094 L 4.6308594 5.7246094 L 4.6308594 5.7265625 L 4.6328125 5.7285156 C 4.633 5.7293604 4.6327187 5.7334509 4.6328125 5.734375 C 4.6328125 5.7353281 4.6329062 5.7393025 4.6328125 5.7402344 L 4.6308594 5.7421875 L 4.6308594 5.7441406 L 4.6308594 5.7460938 L 4.6289062 5.7460938 L 4.6269531 5.7460938 L 4.625 5.7460938 L 5.4570312 6.5800781 L 5.375 6.75 A 3.07 3.07 0 0 0 5.2539062 7.0234375 L 5.1894531 7.2011719 L 3.9980469 7.2011719 L 3.9980469 8.7988281 L 5.1894531 8.7988281 L 5.2539062 8.9765625 C 5.2829062 9.0565625 5.3250469 9.15 5.3730469 9.25 L 5.4570312 9.4199219 L 4.6269531 10.253906 L 4.6289062 10.253906 L 4.6289062 10.255859 L 4.6308594 10.255859 L 4.6308594 10.257812 L 4.6328125 10.259766 C 4.6329687 10.260605 4.6327344 10.264712 4.6328125 10.265625 C 4.6328125 10.266562 4.6328906 10.270571 4.6328125 10.271484 L 4.6308594 10.273438 L 4.6308594 10.275391 L 4.6308594 10.277344 L 4.6289062 10.277344 L 5.7226562 11.371094 L 5.7246094 11.369141 L 5.7265625 11.369141 L 5.7285156 11.369141 L 5.7304688 11.367188 C 5.7332038 11.36684 5.7393361 11.366893 5.7421875 11.367188 L 5.7441406 11.369141 L 5.7460938 11.369141 L 5.7480469 11.369141 L 5.7480469 11.371094 L 5.7480469 11.373047 L 6.5800781 10.542969 L 6.7480469 10.625 C 6.8480469 10.672 6.9423906 10.718047 7.0253906 10.748047 L 7.1992188 10.810547 L 7.1992188 11.998047 L 8.8007812 11.998047 L 8.8007812 10.810547 L 8.9785156 10.748047 C 9.0605156 10.718047 9.1519531 10.673 9.2519531 10.625 L 9.4238281 10.542969 L 10.253906 11.371094 L 10.253906 11.369141 L 10.255859 11.369141 L 10.257812 11.369141 L 10.259766 11.367188 C 10.264366 11.366474 10.271387 11.36807 10.275391 11.369141 L 10.277344 11.369141 L 10.279297 11.369141 L 10.279297 11.371094 L 10.279297 11.373047 L 11.375 10.277344 L 11.373047 10.277344 L 11.373047 10.275391 L 11.371094 10.275391 L 11.371094 10.273438 L 11.371094 10.271484 C 11.370922 10.27064 11.369227 10.266549 11.369141 10.265625 C 11.369141 10.264672 11.371008 10.260698 11.371094 10.259766 L 11.371094 10.257812 L 11.371094 10.255859 L 11.373047 10.253906 L 11.375 10.253906 L 11.376953 10.253906 L 10.544922 9.4199219 L 10.626953 9.25 C 10.674953 9.15 10.718094 9.0585625 10.746094 8.9765625 L 10.810547 8.7988281 L 11.998047 8.7988281 L 11.998047 7.2011719 L 10.810547 7.2011719 L 10.746094 7.0234375 A 2.75 2.75 0 0 0 10.626953 6.75 L 10.544922 6.5800781 L 11.376953 5.7460938 L 11.375 5.7460938 L 11.373047 5.7460938 L 11.373047 5.7441406 L 11.371094 5.7441406 L 11.371094 5.7421875 L 11.371094 5.7402344 C 11.370922 5.7393945 11.369227 5.7352881 11.369141 5.734375 C 11.369141 5.7334375 11.371008 5.7294287 11.371094 5.7285156 L 11.371094 5.7265625 L 11.371094 5.7246094 L 11.373047 5.7226562 L 11.375 5.7226562 L 10.279297 4.6269531 L 10.279297 4.6289062 L 10.279297 4.6308594 L 10.277344 4.6308594 L 10.275391 4.6308594 L 10.273438 4.6328125 C 10.269925 4.6334088 10.263357 4.6313546 10.259766 4.6308594 C 10.258975 4.6306674 10.256497 4.6311196 10.255859 4.6308594 L 10.253906 4.6289062 L 10.253906 4.6269531 L 9.421875 5.4570312 L 9.2519531 5.375 A 3.18 3.18 0 0 0 8.9765625 5.2519531 L 8.8007812 5.1894531 L 8.8007812 4.0019531 L 7.2011719 4.0019531 z M 8.0019531 6.6679688 C 8.7349531 6.6679688 9.3339844 7.268 9.3339844 8 C 9.3339844 8.733 8.7349531 9.3320312 8.0019531 9.3320312 C 7.2689531 9.3320312 6.6679688 8.732 6.6679688 8 C 6.6679688 7.267 7.2689531 6.6679688 8.0019531 6.6679688 z M 5.7226562 11.373047 L 5.7246094 11.375 L 5.7246094 11.373047 L 5.7226562 11.373047 z " />
</svg>

<svg height="16" width="16" xmlns="http://www.w3.org/2000/svg"><path d="M2.5 1C1.678 1 1 1.678 1 2.5v11c0 .822.678 1.5 1.5 1.5h11c.823 0 1.5-.678 1.5-1.5v-11c0-.822-.677-1.5-1.5-1.5zm0 1h11c.286 0 .5.214.5.5v11c0 .286-.214.5-.5.5h-11a.488.488 0 0 1-.5-.5v-11c0-.286.215-.5.5-.5zm4.701 2.002v1.187l-.175.063a3.33 3.33 0 0 0-.276.123l-.168.082-.834-.832c0-.003-.01-.004-.012-.006 0 .002-.012.004-.012.006l-1.1 1.1c.012-.011.012.03 0 .02l.833.835-.082.17a3.07 3.07 0 0 0-.121.273l-.065.178h-1.19v1.598h1.19l.065.178c.029.08.072.173.12.273l.083.17-.832.836c.01-.01.01.03 0 .02l1.1 1.099c-.012-.01.032-.01.022 0l.834-.832.168.082c.1.047.193.093.276.123l.175.062v1.188h1.6V10.81l.178-.062c.082-.03.173-.075.273-.123l.172-.082.832.832c-.011-.01.034-.01.023 0l1.1-1.1c-.011.011-.011-.03 0-.02l-.834-.835.082-.17c.048-.1.092-.192.12-.274l.065-.177h1.188V7.201h-1.188l-.064-.178a2.75 2.75 0 0 0-.121-.273l-.082-.17.834-.836c-.011.01-.011-.03 0-.02l-1.1-1.099c.011.01-.034.01-.022 0l-.834.832-.17-.082a3.18 3.18 0 0 0-.275-.123l-.176-.063V4.002zm.801 2.666c.733 0 1.332.6 1.332 1.332 0 .733-.599 1.332-1.332 1.332-.733 0-1.334-.6-1.334-1.332 0-.733.601-1.332 1.334-1.332z" fill="#363636" overflow="visible" style="marker:none"/></svg>
